packages/components/src/components/icon/cashier/ic-cashier-air-tm-dark.svg

<svg width="40" height="25" viewBox="0 0 40 25" fill="none" xmlns="http://www.w3.org/2000/svg">
<path d="M26.5246 9.18756H26.1642C25.9964 9.18756 25.8597 9.32485 25.8597 9.49434V13.5113C25.8597 14.6113 26.541 15.4593 27.6636 15.4593H28.3732C28.541 15.4593 28.6777 15.322 28.6777 15.1525V14.896C28.6777 14.726 28.5399 14.5881 28.371 14.5892L27.8297 14.5915C27.1032 14.5915 26.8636 14.1339 26.8286 13.1508V11.1299H28.371C28.5393 11.1299 28.6755 10.9926 28.6755 10.8231V10.5638C28.6755 10.3943 28.5393 10.257 28.371 10.257H26.8286V9.49434C26.8286 9.32485 26.693 9.18813 26.5246 9.18813V9.18756ZM34.8585 10.2576H34.3788C33.7834 10.2576 33.3082 10.4881 32.9845 10.8644C32.6658 10.4881 32.1952 10.2576 31.6003 10.2576H31.1207C29.9529 10.2576 29.2444 11.1401 29.2444 12.2859V15.1525C29.2444 15.322 29.38 15.4593 29.5483 15.4593H29.9065C30.0749 15.4593 30.2111 15.322 30.2111 15.1525V12.4322C30.2111 11.739 30.5365 11.1294 31.3602 11.1294C32.1839 11.1294 32.4969 11.7395 32.4969 12.4322V15.1525C32.4969 15.322 32.6325 15.4593 32.8014 15.4593H33.1653C33.3336 15.4593 33.4704 15.322 33.4704 15.1525V12.4322C33.4704 11.739 33.7958 11.1294 34.6189 11.1294C35.4421 11.1294 35.7545 11.7395 35.7545 12.4322V15.1525C35.7545 15.322 35.8918 15.4593 36.0596 15.4593H36.4099C36.5783 15.4593 36.7144 15.322 36.7144 15.1525V12.2853C36.7144 11.1401 36.0263 10.2576 34.8591 10.2576H34.8585ZM24.3698 10.2576C23.2026 10.2576 22.4941 11.1401 22.4941 12.2859V15.1525C22.4941 15.322 22.6303 15.4593 22.7987 15.4593H23.1563C23.3247 15.4593 23.4614 15.322 23.4614 15.1525V12.4322C23.4614 11.739 23.7868 11.1294 24.61 11.1294H25.0066C25.1749 11.1294 25.3116 10.9921 25.3116 10.8226V10.5644C25.3116 10.3949 25.1744 10.2576 25.0066 10.2576H24.3698ZM21.3405 9.69151H20.9015C20.7281 9.69151 20.5879 9.55027 20.5879 9.37513V8.93333C20.5879 8.75875 20.7281 8.61751 20.9015 8.61751H21.3405C21.5134 8.61751 21.6535 8.75875 21.6535 8.93389V9.37457C21.6535 9.54971 21.5134 9.69095 21.3405 9.69095V9.69151ZM19.5806 11.7644C19.1247 10.6796 18.0168 10.0169 16.8315 10.1599C15.5682 10.3107 14.5846 11.3723 14.5157 12.652C14.4337 14.1841 15.6467 15.457 17.1495 15.457L17.9518 15.4593C18.1202 15.4593 18.2563 15.3762 18.2563 15.2073V14.8525C18.2563 14.6836 18.1202 14.5983 17.9529 14.5983H17.1863C16.271 14.5983 15.497 13.7717 15.4699 12.8503C15.4416 11.8921 16.206 11.1045 17.1501 11.1045C17.7219 11.1045 18.2495 11.3938 18.562 11.8785C18.7388 12.1525 18.8326 12.4706 18.8326 12.7983V15.1525C18.8326 15.322 18.9682 15.4593 19.1371 15.4593H19.484C19.6524 15.4593 19.7891 15.322 19.7891 15.1525V12.7977C19.7891 12.4395 19.719 12.0915 19.5812 11.7638L19.5806 11.7644ZM20.9427 15.4593H21.3032C21.471 15.4593 21.6077 15.322 21.6077 15.1525V10.5633C21.6077 10.3938 21.471 10.2565 21.3026 10.2565H20.9422C20.7744 10.2565 20.6382 10.3938 20.6382 10.5633V15.1525C20.6382 15.322 20.7738 15.4593 20.9422 15.4593H20.9427ZM38.5975 10.1395V9.6418L38.3828 10.1395H38.2573L38.0489 9.64801V10.1395H37.8873V9.35988H38.098L38.3251 9.90225L38.5523 9.35988H38.75V10.1395H38.5969H38.5975ZM37.5161 9.50507V10.1395H37.3545V9.50507H37.1167V9.35931H37.754V9.50507H37.5161ZM6.76259 13.3729C6.76259 13.3729 7.65298 13.9158 8.95467 13.6282L9.17896 17.0531C9.19026 17.2169 9.06653 17.3514 8.90382 17.3514H5.58293C5.41909 17.3514 5.29536 17.2169 5.30723 17.0531L5.53491 13.5791C5.8383 13.596 6.26372 13.5649 6.76259 13.3729ZM7.32755 16.1559C7.68349 16.122 7.86541 15.9146 7.86541 15.6418C7.86541 15.3423 7.68913 15.1898 7.34902 15.1412L7.26258 15.1288C7.07162 15.1022 7.00665 15.0384 7.00665 14.9463C7.00665 14.8497 7.07332 14.7808 7.19761 14.7711C7.22191 14.77 7.23998 14.7695 7.26484 14.7711C7.35354 14.7774 7.44111 14.8028 7.5106 14.8373C7.5445 14.8542 7.58066 14.8638 7.61456 14.8638C7.70156 14.8638 7.7688 14.7983 7.7688 14.7084C7.7688 14.6497 7.74224 14.6011 7.68405 14.5644C7.60665 14.5152 7.47219 14.4751 7.32812 14.461V14.2327C7.32812 14.1796 7.28518 14.1367 7.23208 14.1367C7.17897 14.1367 7.13603 14.1796 7.13603 14.2327V14.4604C6.83377 14.4926 6.64451 14.6841 6.64451 14.961C6.64451 15.2525 6.82812 15.4107 7.16371 15.457L7.25072 15.4695C7.4462 15.496 7.50383 15.5565 7.50383 15.6536C7.50383 15.7683 7.40948 15.8485 7.23603 15.8485C7.11513 15.8485 7.01908 15.8169 6.88349 15.7412C6.85524 15.7243 6.81852 15.7124 6.77954 15.7124C6.68801 15.7124 6.62078 15.7824 6.62078 15.8706C6.62078 15.9282 6.64959 15.9847 6.70552 16.0209C6.79987 16.0802 6.94677 16.1423 7.13603 16.1576V16.4316C7.13603 16.4853 7.17897 16.5288 7.23208 16.5288C7.28518 16.5288 7.32812 16.4853 7.32812 16.4316V16.1559H7.32755ZM11.4111 10.6503C11.4801 9.30112 10.5241 7.9757 9.21794 7.62034C8.9315 7.54237 8.61512 7.5 8.32642 7.5C8.25975 7.5 8.19535 7.50226 8.13433 7.50621C7.19648 7.57232 6.33377 8.05254 5.81626 8.79321C5.57559 8.71242 5.32304 8.67118 5.06372 8.67118C4.61175 8.67118 4.15864 8.79773 3.75526 9.03728C3.09085 9.43106 2.63831 10.0977 2.53944 10.826C1.71063 11.2757 1.20612 12.1751 1.25301 13.1271C1.31741 14.444 2.4191 15.4762 3.76204 15.4762H5.0479C5.07898 15.4762 5.1044 15.4525 5.10723 15.422L5.16655 14.7695C5.16824 14.7525 5.16259 14.7361 5.15129 14.7243C5.14 14.7113 5.12418 14.7045 5.10723 14.7045H3.70384C3.24 14.7045 2.80667 14.518 2.48464 14.1791C2.16261 13.8401 1.99707 13.3955 2.01741 12.9271C2.04566 12.2751 2.46713 11.6825 3.09085 11.4169L3.22023 11.3621C3.24 11.3537 3.25413 11.335 3.25582 11.3141L3.28746 11.039C3.32136 10.5 3.6417 9.99999 4.14395 9.70225C4.42983 9.53276 4.74847 9.44349 5.06372 9.44349C5.30553 9.44349 5.53491 9.49434 5.74621 9.59604L6.07389 9.75253C6.10214 9.76553 6.13491 9.75536 6.15072 9.7288L6.35185 9.38078C6.71343 8.75367 7.41739 8.3305 8.188 8.27627C8.43998 8.25932 8.74732 8.29209 9.01851 8.36553C10.027 8.64011 10.7665 9.73615 10.6326 10.7593L10.5812 11.1582C10.5773 11.1876 10.5959 11.2158 10.6247 11.2231L10.9823 11.3209C11.7185 11.522 12.2326 12.2 12.2326 12.97C12.2326 13.926 11.4722 14.7045 10.5371 14.7045H9.37839C9.36144 14.7045 9.34562 14.7113 9.33432 14.7237C9.32302 14.7361 9.31738 14.7525 9.31907 14.7695L9.37839 15.422C9.38122 15.4525 9.40664 15.4762 9.43771 15.4762H10.5371C11.8942 15.4762 12.9987 14.3519 12.9987 12.9695C12.9987 11.9407 12.3626 11.0147 11.4111 10.6503Z" fill="#0083FF"/>
</svg>

<svg width="40" height="25" fill="none" xmlns="http://www.w3.org/2000/svg"><path d="M26.525 9.188h-.36a.306.306 0 00-.305.306v4.017c0 1.1.681 1.948 1.804 1.948h.71a.306.306 0 00.304-.306v-.257a.306.306 0 00-.307-.307l-.541.002c-.727 0-.966-.457-1.001-1.44V11.13h1.542a.306.306 0 00.305-.307v-.26a.306.306 0 00-.305-.306h-1.542v-.763a.305.305 0 00-.304-.306zm8.334 1.07h-.48c-.596 0-1.07.23-1.395.606-.318-.376-.789-.606-1.384-.606h-.48c-1.167 0-1.876.882-1.876 2.028v2.867c0 .169.136.306.304.306h.359a.306.306 0 00.304-.306v-2.72c0-.694.326-1.304 1.15-1.304.823 0 1.136.61 1.136 1.303v2.72c0 .17.136.307.304.307h.364a.306.306 0 00.305-.306v-2.72c0-.694.326-1.304 1.149-1.304s1.136.61 1.136 1.303v2.72c0 .17.137.307.305.307h.35a.305.305 0 00.304-.306v-2.868c0-1.145-.688-2.027-1.855-2.027zm-10.49 0c-1.166 0-1.875.882-1.875 2.028v2.867c0 .169.136.306.305.306h.357a.306.306 0 00.305-.306v-2.72c0-.694.326-1.304 1.149-1.304h.397a.306.306 0 00.305-.306v-.259a.306.306 0 00-.305-.306h-.637zm-3.029-.566h-.439a.315.315 0 01-.313-.317v-.442c0-.174.14-.315.313-.315h.44c.172 0 .313.14.313.316v.44c0 .176-.14.317-.314.317zm-1.76 2.072a2.633 2.633 0 00-2.748-1.604c-1.264.15-2.247 1.212-2.316 2.492-.082 1.532 1.13 2.805 2.633 2.805l.803.002c.168 0 .304-.083.304-.252v-.355c0-.168-.136-.254-.303-.254h-.767c-.915 0-1.689-.826-1.716-1.748a1.69 1.69 0 011.68-1.745 1.693 1.693 0 011.683 1.694v2.354c0 .169.135.306.304.306h.347a.306.306 0 00.305-.306v-2.355c0-.358-.07-.707-.208-1.034zm1.363 3.695h.36a.306.306 0 00.305-.306v-4.59a.306.306 0 00-.305-.306h-.36a.305.305 0 00-.305.306v4.59c0 .169.136.306.304.306zm17.654-5.32v-.497l-.214.498h-.126l-.208-.492v.492h-.162v-.78h.211l.227.542.227-.542h.198v.78h-.153zm-1.08-.634v.634h-.163v-.634h-.237V9.36h.637v.146h-.238zM6.762 13.373s.89.543 2.192.255l.224 3.425a.275.275 0 01-.275.298H5.583a.274.274 0 01-.276-.298l.228-3.474c.303.017.729-.014 1.228-.206zm.565 2.783c.355-.034.537-.241.537-.514 0-.3-.176-.452-.516-.5l-.086-.013c-.191-.027-.256-.09-.256-.183 0-.096.066-.165.19-.175a.675.675 0 01.313.066c.035.017.07.027.105.027a.151.151 0 00.154-.156c0-.058-.027-.107-.085-.144a.875.875 0 00-.356-.103v-.228a.096.096 0 10-.192 0v.227c-.302.033-.491.224-.491.501 0 .291.183.45.519.496l.087.012c.195.027.253.088.253.185 0 .114-.095.194-.268.194a.674.674 0 01-.353-.107.206.206 0 00-.103-.029.156.156 0 00-.16.159c0 .057.03.114.086.15a.96.96 0 00.43.137v.274c0 .053.043.097.096.097a.097.097 0 00.096-.097v-.276zm4.083-5.506c.07-1.349-.887-2.674-2.193-3.03a3.492 3.492 0 00-1.084-.114c-.938.066-1.8.547-2.318 1.287a2.357 2.357 0 00-.752-.122 2.57 2.57 0 00-1.309.366c-.664.394-1.117 1.06-1.216 1.789a2.484 2.484 0 00-1.286 2.301c.064 1.317 1.166 2.35 2.509 2.35h1.286a.06.06 0 00.06-.055l.059-.652a.057.057 0 00-.016-.046.058.058 0 00-.044-.02H3.704c-.464 0-.897-.186-1.22-.525a1.695 1.695 0 01-.467-1.252c.029-.652.45-1.245 1.074-1.51l.13-.055a.058.058 0 00.035-.048l.031-.275c.034-.539.355-1.039.857-1.337a1.81 1.81 0 01.92-.259c.242 0 .47.051.682.153l.328.157a.06.06 0 00.077-.024l.2-.348c.362-.627 1.066-1.05 1.837-1.105.252-.017.56.016.83.09 1.009.274 1.748 1.37 1.615 2.393l-.052.4a.059.059 0 00.044.064l.357.098c.737.201 1.25.879 1.25 1.649 0 .956-.76 1.734-1.695 1.734H9.378a.06.06 0 00-.059.066l.06.652a.06.06 0 00.059.054h1.1c1.356 0 2.46-1.124 2.46-2.507a2.487 2.487 0 00-1.587-2.319z" fill="#0083FF"/></svg>
